X: 81
T: Harvest Home, The
B: begged borrowed and stolen
M:4/4
L:1/8
R: Hornpipe
Q: 1/4=120
K:D
V:1 
A>F|:"D"D>AF>A D>AF>A|d>ef>e d>cB>A|"A"e>Af>A g>Af>A|(3efe (3dcB (3ABA (3GFE|
"D"D>AF>A D>AF>A|d>ef>e d>cB>A|"A"e>Af>A g>ec>e|1"D"d2f2d2 A>F :||1"D"d2f2d2 c>d||
|:   "A"e>A (3AAA f>A (3AAA|g>A (3AAA f>A (3AAA|e>Af>A g>Af>A|
(3efe (3dcB (3ABA (3GFE|"D"D>AF>A D>AF>A|d>ef>e d>cB>A|"A"e>Af>A g>ec>e|"D"d2f2d2:|
% abcbook-tune_id 627e2b1fbf00b67dcaa3f0c0


% abcbook-boost 0
% abcbook-tablature 
% abcbook-transpose 
% abcbook-lastupdated 1652725431117
% abcbook-soundfonts 
% abcbook-repeats 3
% Rhythm Hornpipe
% Titles One title
% Transcriptions Only 1 transcription
% Mode major
% Key D
% Time_signature 4/4
% Has_accompaniment_chords Has chords

